dist/assets/img/questions/1/answers/2_1200.svg

<svg width="431" height="232" viewBox="0 0 431 232" fill="none" xmlns="http://www.w3.org/2000/svg">
<g filter="url(#filter0_di_1419_54472)">
<path fill-rule="evenodd" clip-rule="evenodd" d="M61.7818 28C57.6758 28 54.2365 31.1084 53.8226 35.1935L40.0416 171.193C39.564 175.907 43.2636 180 48.0008 180H351.517C355.623 180 359.062 176.892 359.476 172.807L360.913 158.627C361.444 153.378 367.516 150.637 372.339 152.777C377.953 155.269 384.041 156.666 389.942 155.684C390.013 155.672 390.031 155.578 389.969 155.541C383.977 151.921 370.055 143.512 364.605 129.552C364.194 128.5 364.081 127.358 364.195 126.234L373.257 36.8065C373.734 32.0935 370.035 28 365.298 28H61.7818Z" fill="#FFF0CB"/>
</g>
<defs>
<filter id="filter0_di_1419_54472" x="0" y="0" width="430.008" height="232" filterUnits="userSpaceOnUse" color-interpolation-filters="sRGB">
<feFlood flood-opacity="0" result="BackgroundImageFix"/>
<feColorMatrix in="SourceAlpha" type="matrix" values="0 0 0 0 0 0 0 0 0 0 0 0 0 0 0 0 0 0 127 0" result="hardAlpha"/>
<feOffset dy="12"/>
<feGaussianBlur stdDeviation="20"/>
<feComposite in2="hardAlpha" operator="out"/>
<feColorMatrix type="matrix" values="0 0 0 0 1 0 0 0 0 1 0 0 0 0 1 0 0 0 1 0"/>
<feBlend mode="normal" in2="BackgroundImageFix" result="effect1_dropShadow_1419_54472"/>
<feBlend mode="normal" in="SourceGraphic" in2="effect1_dropShadow_1419_54472" result="shape"/>
<feColorMatrix in="SourceAlpha" type="matrix" values="0 0 0 0 0 0 0 0 0 0 0 0 0 0 0 0 0 0 127 0" result="hardAlpha"/>
<feOffset dy="-4"/>
<feGaussianBlur stdDeviation="4"/>
<feComposite in2="hardAlpha" operator="arithmetic" k2="-1" k3="1"/>
<feColorMatrix type="matrix" values="0 0 0 0 0.883659 0 0 0 0 0.635314 0 0 0 0 0.0558422 0 0 0 0.4 0"/>
<feBlend mode="normal" in2="shape" result="effect2_innerShadow_1419_54472"/>
</filter>
</defs>
</svg>

<svg width="431" height="232" viewBox="0 0 431 232" fill="none" xmlns="http://www.w3.org/2000/svg"><g filter="url(#filter0_di_1419_54472)"><path fill-rule="evenodd" clip-rule="evenodd" d="M61.782 28a8 8 0 00-7.96 7.194l-13.78 135.999C39.564 175.907 43.264 180 48 180h303.516a8 8 0 007.959-7.193l1.437-14.18c.531-5.249 6.603-7.99 11.426-5.85 5.614 2.492 11.702 3.889 17.603 2.907a.078.078 0 00.027-.143c-5.992-3.62-19.914-12.029-25.364-25.989-.411-1.052-.524-2.194-.41-3.318l9.062-89.427c.477-4.714-3.222-8.807-7.959-8.807H61.782z" fill="#FFF0CB"/></g><defs><filter id="filter0_di_1419_54472" x="0" y="0" width="430.008" height="232" filterUnits="userSpaceOnUse" color-interpolation-filters="sRGB"><feFlood flood-opacity="0" result="BackgroundImageFix"/><feColorMatrix in="SourceAlpha" values="0 0 0 0 0 0 0 0 0 0 0 0 0 0 0 0 0 0 127 0" result="hardAlpha"/><feOffset dy="12"/><feGaussianBlur stdDeviation="20"/><feComposite in2="hardAlpha" operator="out"/><feColorMatrix values="0 0 0 0 1 0 0 0 0 1 0 0 0 0 1 0 0 0 1 0"/><feBlend in2="BackgroundImageFix" result="effect1_dropShadow_1419_54472"/><feBlend in="SourceGraphic" in2="effect1_dropShadow_1419_54472" result="shape"/><feColorMatrix in="SourceAlpha" values="0 0 0 0 0 0 0 0 0 0 0 0 0 0 0 0 0 0 127 0" result="hardAlpha"/><feOffset dy="-4"/><feGaussianBlur stdDeviation="4"/><feComposite in2="hardAlpha" operator="arithmetic" k2="-1" k3="1"/><feColorMatrix values="0 0 0 0 0.883659 0 0 0 0 0.635314 0 0 0 0 0.0558422 0 0 0 0.4 0"/><feBlend in2="shape" result="effect2_innerShadow_1419_54472"/></filter></defs></svg>
